X: 30163
T: APPLE ISLAND WALTZ
C:
%R: waltz
B: Elias Howe "The Musician's Companion" Part 3 1844 p.16 #3
S: http://imslp.org/wiki/The_Musician's_Companion_(Howe,_Elias)
S: https://archive.org/stream/firstthirdpartof03howe/#page/66/mode/1up
Z: 2016 John Chambers <jc:trillian.mit.edu>
M: 3/8
L: 1/16
K: F
% - - - - - - - - - - - - - - - - - - - - - - - - -
cB |\
Acf2f2 | cfa2a2 | bagab=b | c'2a2f2 |\
Acf2f2 | cfa2a2 | c'bagfe | "^FINE."f4 :|
|: ef |\
g4c'2 | gec2=Bc | d2def^f | gegec2 |\
g4c'2 | gec2 =Bc | defga=b | "^D.C."c'4 |]
% - - - - - - - - - - - - - - - - - - - - - - - - -
